X:41
T:Polska ur Petter Dufvas notbok (Ma6-41)
R:Polska
O:Verkelbäck, Småland
B:Petter Dufvas notbok
S:Petter Dufva
N:En enkel variant av Rovpolskan.
N:Smus Ma6 bild 43
M:3/4
L:1/8
K:D
dAFA dA|BG E2 c2|df edcB|edcB A2|
dAFA dA|BG E2 c2|df edcB|ed/c/ d2 D2:|
|:FAFAFA|GBGBGB|AcAcAc|dA FAdA|
dA FAdA|BG E2 c2|df edcB|ed/c/ d2 D2:|

